!!!OTL: Kang babing
!!!ARE: Asia, China,ÿNingxia Yanchi
!! I, 177
!!!SCT: C1843
!!!YEM: Copyright 1995, estate of Helmut Schaffrath.
**kern
*ICvox
*Ivox
*M2/4
*k[b-]
*F:
{8ff
16ff
16dd
8cc
8b-
=1
8cc
8f
4g
=2
8ff
16ff
16dd
8cc
8b-
=3
8cc
8f
4g}
=4
{8.ff
16gg
8ff
8gg
=5
16ff
16gg
16ff
16dd
4cc
=6
8b-
4b-
8g
=7
8f
8d
4c}
=8
{8.ff
16dd
8cc
8ff
=9
4cc
8b-
8g
=10
8f
8g
16f
16g
16e
16d
=11
2c}
==
!!!AGN: Xiaodiao, Da ningxia diao
!! Han
!!!ONB: ESAC (Essen Associative Code) Database: SENGANSU
!!!AMT: simple duple
!!!AIN: vox
!!!EED: Helmut Schaffrath
!!!EEV: 1.0
*-
